storage/app/icons/phosphoricons/duotone/code-block-duotone.svg

<svg xmlns="http://www.w3.org/2000/svg" fill="currentColor" viewBox="0 0 256 256"><path d="M152 32v64a16 16 0 0 1-16 16H32a16 16 0 0 1-16-16V32a16 16 0 0 1 16-16h104a16 16 0 0 1 16 16" opacity=".2"/><path d="m58.34 101.66-32-32a8 8 0 0 1 0-11.32l32-32a8 8 0 0 1 11.32 11.32L43.31 64l26.35 26.34a8 8 0 0 1-11.32 11.32m40 0a8 8 0 0 0 11.32 0l32-32a8 8 0 0 0 0-11.32l-32-32a8 8 0 0 0-11.32 11.32L124.69 64 98.34 90.34a8 8 0 0 0 0 11.32M200 40h-24a8 8 0 0 0 0 16h24v144H56v-64a8 8 0 0 0-16 0v64a16 16 0 0 0 16 16h144a16 16 0 0 0 16-16V56a16 16 0 0 0-16-16"/></svg>

<svg xmlns="http://www.w3.org/2000/svg" viewBox="0 0 256 256" fill="currentColor"><path d="M152,32V96a16,16,0,0,1-16,16H32A16,16,0,0,1,16,96V32A16,16,0,0,1,32,16H136A16,16,0,0,1,152,32Z" opacity="0.2"/><path d="M58.34,101.66l-32-32a8,8,0,0,1,0-11.32l32-32A8,8,0,0,1,69.66,37.66L43.31,64,69.66,90.34a8,8,0,0,1-11.32,11.32Zm40,0a8,8,0,0,0,11.32,0l32-32a8,8,0,0,0,0-11.32l-32-32A8,8,0,0,0,98.34,37.66L124.69,64,98.34,90.34A8,8,0,0,0,98.34,101.66ZM200,40H176a8,8,0,0,0,0,16h24V200H56V136a8,8,0,0,0-16,0v64a16,16,0,0,0,16,16H200a16,16,0,0,0,16-16V56A16,16,0,0,0,200,40Z"/></svg>
